X: 36949
T: Shovel Tongue
R: reel
M: 4/4
K: Amajor
c3B AecB|Aaec fecA|B2BA Bffe|faef cBBd|
c3B AecB|Aaec fece|a2ga efaf|1 ecBc A2B2:|2 ecBc Aefg||
a3g aecB|Aaec fecA|B=ggB aB=gB|Bg=cg d=ge^g|
a3g aecB|Aaec fece|a2ga efaf|1 ecBc Aefg:|2 ecBc A2B2||

